src/assets/icons/filters/categories/ghost_stroke.svg

<svg width="48" height="13" viewBox="0 0 48 13" fill="none" xmlns="http://www.w3.org/2000/svg">
<path fill-rule="evenodd" clip-rule="evenodd" d="M6.4 0C4.70261 0 3.07475 0.674285 1.87452 1.87452C0.674284 3.07475 0 4.70261 0 6.4C0 8.09739 0.674284 9.72525 1.87452 10.9255C3.07475 12.1257 4.70261 12.8 6.4 12.8C8.09739 12.8 9.72525 12.1257 10.9255 10.9255C12.1257 9.72525 12.8 8.09739 12.8 6.4C12.8 4.70261 12.1257 3.07475 10.9255 1.87452C9.72525 0.674285 8.09739 0 6.4 0ZM6.4 3.2C8.1648 3.2 9.6 4.6352 9.6 6.4C9.6 8.1648 8.1648 9.6 6.4 9.6C4.6352 9.6 3.2 8.1648 3.2 6.4C3.2 4.6352 4.6352 3.2 6.4 3.2ZM24 0C25.6974 0 27.3252 0.674285 28.5255 1.87452C29.7257 3.07475 30.4 4.70261 30.4 6.4C30.4 8.09739 29.7257 9.72525 28.5255 10.9255C27.3252 12.1257 25.6974 12.8 24 12.8C22.3026 12.8 20.6748 12.1257 19.4745 10.9255C18.2743 9.72525 17.6 8.09739 17.6 6.4C17.6 4.70261 18.2743 3.07475 19.4745 1.87452C20.6748 0.674285 22.3026 0 24 0V0ZM24 3.2C22.2352 3.2 20.8 4.6352 20.8 6.4C20.8 8.1648 22.2352 9.6 24 9.6C25.7648 9.6 27.2 8.1648 27.2 6.4C27.2 4.6352 25.7648 3.2 24 3.2ZM41.6 0C43.2974 0 44.9253 0.674285 46.1255 1.87452C47.3257 3.07475 48 4.70261 48 6.4C48 8.09739 47.3257 9.72525 46.1255 10.9255C44.9253 12.1257 43.2974 12.8 41.6 12.8C39.9026 12.8 38.2748 12.1257 37.0745 10.9255C35.8743 9.72525 35.2 8.09739 35.2 6.4C35.2 4.70261 35.8743 3.07475 37.0745 1.87452C38.2748 0.674285 39.9026 0 41.6 0V0ZM41.6 3.2C39.8352 3.2 38.4 4.6352 38.4 6.4C38.4 8.1648 39.8352 9.6 41.6 9.6C43.3648 9.6 44.8 8.1648 44.8 6.4C44.8 4.6352 43.3648 3.2 41.6 3.2Z" fill="black"/>
</svg>

<svg width="48" height="13" viewBox="0 0 48 13" fill="none" xmlns="http://www.w3.org/2000/svg"><path fill-rule="evenodd" clip-rule="evenodd" d="M6.4 0a6.4 6.4 0 100 12.8A6.4 6.4 0 006.4 0zm0 3.2c1.765 0 3.2 1.435 3.2 3.2 0 1.765-1.435 3.2-3.2 3.2a3.203 3.203 0 01-3.2-3.2c0-1.765 1.435-3.2 3.2-3.2zM24 0a6.4 6.4 0 110 12.8A6.4 6.4 0 0124 0zm0 3.2a3.203 3.203 0 00-3.2 3.2c0 1.765 1.435 3.2 3.2 3.2 1.765 0 3.2-1.435 3.2-3.2 0-1.765-1.435-3.2-3.2-3.2zM41.6 0a6.4 6.4 0 110 12.8 6.4 6.4 0 010-12.8zm0 3.2a3.203 3.203 0 00-3.2 3.2c0 1.765 1.435 3.2 3.2 3.2 1.765 0 3.2-1.435 3.2-3.2 0-1.765-1.435-3.2-3.2-3.2z" fill="#000"/></svg>
